X:511
T:Mrs Stewart's Jig
T:Captain Charles Stewart's Jigg
C:Malcolm MacDonald
B:RSCDS 35-1
S:Colin Hume's website,  colinhume.com  - chords can also be printed below the stave.
Q:3/8=116
M:6/8
L:1/8
K:G
P:A
|:D | "G"G3 G2 c | "Em"B/c/de "C"g2 e | "G"dBG "Am"ABA | "C"GEE E2 D/E/ |\
"G"G3 G2 c | "Em"B/c/de "C"g2 e | "G"dBG "D7"ABc | "G"BGG "G"G2 :|
P:B
d | "G"d^cd "C"e=ce | "Am"efg g2 e | "G"dBG "D7"ABc | "Em"BAG EDE |\
"G"d^cd "C"e=ce | "Am"efg g2 e | "G"dBG "D7"ABc | "G"BGG G2 d |
"G"d^cd "C"e=ce | "Am"efg g2 e | "G"dBG "D7"ABc | "Em"BAG EDE |\
"G"G3 G2 c | "Em"B/c/de "C"g2 e | "G"dBG "D7"ABc | "G"BGG "G"G2 |]

